art/standard/gamepad/luna/rightxy.svg

<svg xmlns="http://www.w3.org/2000/svg" version="1.1" xmlns:xlink="http://www.w3.org/1999/xlink" preserveAspectRatio="none" x="0px" y="0px" width="100px" height="100px" viewBox="0 0 100 100">
<defs>
<radialGradient id="Gradient_1" gradientUnits="userSpaceOnUse" cx="0" cy="0" r="32.80000000000001" fx="0" fy="0" gradientTransform="matrix( 0.9999999999999998, 0, 0, 0.9999999999999998, 50,50.05) " spreadMethod="pad">
<stop  offset="83.13725490196079%" stop-color="#6C6C6C"/>

<stop  offset="97.6470588235294%" stop-color="#151515"/>
</radialGradient>
</defs>

<g id="Luna">
<g>
<g>
<g>
<path fill="#272727" stroke="none" d="
M 79.85 20.15
Q 67.5 7.8 50 7.8 32.5 7.8 20.15 20.15 7.8 32.5 7.8 50 7.8 67.5 20.15 79.85 32.5 92.2 50 92.2 67.5 92.2 79.85 79.85 92.2 67.5 92.2 50 92.2 32.5 79.85 20.15
M 50 15.95
Q 64.2 15.95 74.1 25.95 84.1 35.9 84.1 50 84.1 64.2 74.1 74.1 64.2 84.1 50 84.1 35.9 84.1 25.95 74.1 15.95 64.2 15.95 50 15.95 35.9 25.95 25.95 35.9 15.95 50 15.95 Z"/>

<path fill="#3C3C3C" stroke="none" d="
M 74.1 25.95
Q 64.2 15.95 50 15.95 35.9 15.95 25.95 25.95 15.95 35.9 15.95 50 15.95 64.2 25.95 74.1 35.9 84.1 50 84.1 64.2 84.1 74.1 74.1 84.1 64.2 84.1 50 84.1 35.9 74.1 25.95
M 82.2 50
Q 82.2 51.268359375 82.1 52.5
L 77.8 52.5
Q 77.53671875 55.71015625 76.6 58.6
L 80.6 60.3
Q 79.840234375 62.6869140625 78.65 64.9
L 74.7 63.25
Q 73.3615234375 65.6876953125 71.45 67.95
L 74.5 71
Q 73.6869140625 71.9130859375 72.8 72.8 71.887109375 73.712890625 70.9 74.5
L 67.9 71.5
Q 65.479296875 73.5103515625 62.8 74.9
L 64.4 78.95
Q 62.170703125 80.0837890625 59.75 80.8
L 58.15 76.75
Q 55.4259765625 77.5837890625 52.5 77.8
L 52.5 82.15
Q 51.267578125 82.25 50 82.25 48.7322265625 82.25 47.5 82.15
L 47.5 77.8
Q 44.304296875 77.5353515625 41.4 76.6
L 39.65 80.65
Q 37.31015625 79.887109375 35.1 78.7
L 36.8 74.65
Q 34.368359375 73.348828125 32.15 71.45
L 29.05 74.55
Q 28.11171875 73.7166015625 27.2 72.8 26.314453125 71.914453125 25.5 71
L 28.6 67.9
Q 26.53515625 65.4916015625 25.15 62.75
L 21.05 64.4
Q 19.95234375 62.16796875 19.2 59.75
L 23.3 58.1
Q 22.5236328125 55.42421875 22.3 52.5
L 17.85 52.5
Q 17.8 51.26796875 17.8 50 17.8 48.732421875 17.85 47.5
L 22.3 47.5
Q 22.5712890625 44.3568359375 23.45 41.45
L 19.35 39.75
Q 20.1376953125 37.371484375 21.3 35.15
L 25.4 36.85
Q 26.7173828125 34.4447265625 28.6 32.2
L 25.45 29.05
Q 26.3 28.15 27.2 27.25 28.09765625 26.34765625 29 25.5
L 32.15 28.65
Q 34.5685546875 26.6119140625 37.25 25.2
L 35.55 21.05
Q 37.816796875 19.9484375 40.2 19.2
L 41.9 23.3
Q 44.56484375 22.525390625 47.5 22.3
L 47.5 17.85
Q 48.73203125 17.8 50 17.8 51.267578125 17.8 52.5 17.85
L 52.5 22.25
Q 55.633203125 22.525390625 58.5 23.4
L 60.25 19.35
Q 62.6337890625 20.1580078125 64.85 21.3
L 63.1 25.35
Q 65.625 26.707421875 67.85 28.6
L 70.95 25.5
Q 71.9001953125 26.3501953125 72.8 27.25 73.7 28.15 74.5 29.05
L 71.45 32.15
Q 73.4640625 34.5408203125 74.9 37.25
L 78.9 35.6
Q 80.051953125 37.84375 80.8 40.25
L 76.75 41.9
Q 77.5765625 44.5783203125 77.8 47.5
L 82.1 47.5
Q 82.2 48.7326171875 82.2 50 Z"/>

<path fill="url(#Gradient_1)" stroke="none" d="
M 82.1 52.5
Q 82.2 51.268359375 82.2 50 82.2 48.7326171875 82.1 47.5
L 77.8 47.5
Q 77.5765625 44.5783203125 76.75 41.9
L 80.8 40.25
Q 80.051953125 37.84375 78.9 35.6
L 74.9 37.25
Q 73.4640625 34.5408203125 71.45 32.15
L 74.5 29.05
Q 73.7 28.15 72.8 27.25 71.9001953125 26.3501953125 70.95 25.5
L 67.85 28.6
Q 65.625 26.707421875 63.1 25.35
L 64.85 21.3
Q 62.6337890625 20.1580078125 60.25 19.35
L 58.5 23.4
Q 55.633203125 22.525390625 52.5 22.25
L 52.5 17.85
Q 51.267578125 17.8 50 17.8 48.73203125 17.8 47.5 17.85
L 47.5 22.3
Q 44.56484375 22.525390625 41.9 23.3
L 40.2 19.2
Q 37.816796875 19.9484375 35.55 21.05
L 37.25 25.2
Q 34.5685546875 26.6119140625 32.15 28.65
L 29 25.5
Q 28.09765625 26.34765625 27.2 27.25 26.3 28.15 25.45 29.05
L 28.6 32.2
Q 26.7173828125 34.4447265625 25.4 36.85
L 21.3 35.15
Q 20.1376953125 37.371484375 19.35 39.75
L 23.45 41.45
Q 22.5712890625 44.3568359375 22.3 47.5
L 17.85 47.5
Q 17.8 48.732421875 17.8 50 17.8 51.26796875 17.85 52.5
L 22.3 52.5
Q 22.5236328125 55.42421875 23.3 58.1
L 19.2 59.75
Q 19.95234375 62.16796875 21.05 64.4
L 25.15 62.75
Q 26.53515625 65.4916015625 28.6 67.9
L 25.5 71
Q 26.314453125 71.914453125 27.2 72.8 28.11171875 73.7166015625 29.05 74.55
L 32.15 71.45
Q 34.368359375 73.348828125 36.8 74.65
L 35.1 78.7
Q 37.31015625 79.887109375 39.65 80.65
L 41.4 76.6
Q 44.304296875 77.5353515625 47.5 77.8
L 47.5 82.15
Q 48.7322265625 82.25 50 82.25 51.267578125 82.25 52.5 82.15
L 52.5 77.8
Q 55.4259765625 77.5837890625 58.15 76.75
L 59.75 80.8
Q 62.170703125 80.0837890625 64.4 78.95
L 62.8 74.9
Q 65.479296875 73.5103515625 67.9 71.5
L 70.9 74.5
Q 71.887109375 73.712890625 72.8 72.8 73.6869140625 71.9130859375 74.5 71
L 71.45 67.95
Q 73.3615234375 65.6876953125 74.7 63.25
L 78.65 64.9
Q 79.840234375 62.6869140625 80.6 60.3
L 76.6 58.6
Q 77.53671875 55.71015625 77.8 52.5
L 82.1 52.5
M 51.7 26.25
Q 54.91328125 26.4326171875 57.8 27.4
L 57.75 27.35
Q 59.358984375 27.9443359375 60.85 28.7
L 60.85 28.65
Q 63.3751953125 29.9677734375 65.6 31.95
L 65.65 31.95
Q 66.2873046875 32.5291015625 66.9 33.15 67.525390625 33.7646484375 68.1 34.4 68.148046875 34.4267578125 68.15 34.45 70.1904296875 36.7953125 71.55 39.5
L 71.55 39.45
Q 72.2921875 41.007421875 72.85 42.7
L 72.85 42.7
Q 73.66953125 45.312890625 73.85 48.2 73.8986328125 49.1 73.9 50 73.8986328125 50.9224609375 73.85 51.8 73.6232421875 54.949609375 72.7 57.75 72.14140625 59.4482421875 71.35 61.05
L 71.4 61
Q 70.1046875 63.388671875 68.2 65.6 68.20078125 65.6255859375 68.15 65.65 67.5728515625 66.287890625 66.9 66.9 66.2408203125 67.6201171875 65.6 68.2 65.573046875 68.2478515625 65.55 68.25 63.23125 70.2212890625 60.65 71.55 60.6248046875 71.5619140625 60.6 71.55 59.0326171875 72.3025390625 57.35 72.85
L 57.4 72.85
Q 54.739453125 73.669921875 51.85 73.85 50.9486328125 73.8986328125 50 73.9 49.1248046875 73.8986328125 48.25 73.85 45.0630859375 73.6205078125 42.2 72.65 40.58046875 72.0923828125 39.1 71.35
L 39.1 71.35
Q 36.651953125 70.092578125 34.45 68.15
L 34.4 68.15
Q 33.7765625 67.5376953125 33.15 66.9 32.5771484375 66.3353515625 32 65.7 31.99765625 65.6767578125 31.95 65.65 29.8259765625 63.2701171875 28.5 60.5 27.7765625 59.02265625 27.3 57.45 27.31171875 57.4529296875 27.3 57.4 26.4326171875 54.724609375 26.25 51.75 26.2015625 50.8984375 26.2 50 26.2015625 49.127734375 26.25 48.3 26.4794921875 45.1130859375 27.45 42.25
L 27.45 42.2
Q 27.9521484375 40.6923828125 28.7 39.25 28.73515625 39.224609375 28.75 39.2 30.0240234375 36.6380859375 32.05 34.35 32.098046875 34.323046875 32.1 34.3 32.62734375 33.71484375 33.15 33.15 33.7001953125 32.6306640625 34.2 32.15 34.258203125 32.1501953125 34.3 32.1 36.7291015625 29.9244140625 39.5 28.55
L 39.55 28.55
Q 41.006640625 27.8111328125 42.6 27.3
L 42.6 27.3
Q 45.2888671875 26.4294921875 48.25 26.25 49.1146484375 26.2015625 50 26.2 50.8853515625 26.2015625 51.7 26.25 Z"/>

<path fill="#555555" stroke="none" d="
M 57.8 27.4
Q 54.91328125 26.4326171875 51.7 26.25 50.8853515625 26.2015625 50 26.2 49.1146484375 26.2015625 48.25 26.25 45.2888671875 26.4294921875 42.6 27.3
L 42.6 27.3
Q 41.006640625 27.8111328125 39.55 28.55
L 39.5 28.55
Q 36.7291015625 29.9244140625 34.3 32.1 34.258203125 32.1501953125 34.2 32.15 33.7001953125 32.6306640625 33.15 33.15 32.62734375 33.71484375 32.1 34.3 32.098046875 34.323046875 32.05 34.35 30.0240234375 36.6380859375 28.75 39.2 28.73515625 39.224609375 28.7 39.25 27.9521484375 40.6923828125 27.45 42.2
L 27.45 42.25
Q 26.4794921875 45.1130859375 26.25 48.3 26.2015625 49.127734375 26.2 50 26.2015625 50.8984375 26.25 51.75 26.4326171875 54.724609375 27.3 57.4 27.31171875 57.4529296875 27.3 57.45 27.7765625 59.02265625 28.5 60.5 29.8259765625 63.2701171875 31.95 65.65 31.99765625 65.6767578125 32 65.7 32.5771484375 66.3353515625 33.15 66.9 33.7765625 67.5376953125 34.4 68.15
L 34.45 68.15
Q 36.651953125 70.092578125 39.1 71.35
L 39.1 71.35
Q 40.58046875 72.0923828125 42.2 72.65 45.0630859375 73.6205078125 48.25 73.85 49.1248046875 73.8986328125 50 73.9 50.9486328125 73.8986328125 51.85 73.85 54.739453125 73.669921875 57.4 72.85
L 57.35 72.85
Q 59.0326171875 72.3025390625 60.6 71.55 60.6248046875 71.5619140625 60.65 71.55 63.23125 70.2212890625 65.55 68.25 65.573046875 68.2478515625 65.6 68.2 66.2408203125 67.6201171875 66.9 66.9 67.5728515625 66.287890625 68.15 65.65 68.20078125 65.6255859375 68.2 65.6 70.1046875 63.388671875 71.4 61
L 71.35 61.05
Q 72.14140625 59.4482421875 72.7 57.75 73.6232421875 54.949609375 73.85 51.8 73.8986328125 50.9224609375 73.9 50 73.8986328125 49.1 73.85 48.2 73.66953125 45.312890625 72.85 42.7
L 72.85 42.7
Q 72.2921875 41.007421875 71.55 39.45
L 71.55 39.5
Q 70.1904296875 36.7953125 68.15 34.45 68.148046875 34.4267578125 68.1 34.4 67.525390625 33.7646484375 66.9 33.15 66.2873046875 32.5291015625 65.65 31.95
L 65.6 31.95
Q 63.3751953125 29.9677734375 60.85 28.65
L 60.85 28.7
Q 59.358984375 27.9443359375 57.75 27.35
L 57.8 27.4
M 50 31.4
Q 57.8 31.4 63.25 36.9 68.7 42.3 68.7 50 68.7 57.8 63.25 63.25 57.8 68.7 50 68.7 42.3 68.7 36.9 63.25 31.4 57.8 31.4 50 31.4 42.3 36.9 36.9 42.3 31.4 50 31.4 Z"/>

<path fill="#3F3F3F" stroke="none" d="
M 63.25 36.9
Q 57.8 31.4 50 31.4 42.3 31.4 36.9 36.9 31.4 42.3 31.4 50 31.4 57.8 36.9 63.25 42.3 68.7 50 68.7 57.8 68.7 63.25 63.25 68.7 57.8 68.7 50 68.7 42.3 63.25 36.9
M 57.5 39.3
Q 58.8 40.15 59.55 41.6 60.3 43.05 60.3 45.25 60.3 47.85 58.95 49.7 57.55 51.55 54.95 52
L 61.25 62.5 54.7 62.5 49.5 52.6 46.85 52.6 46.85 62.5 41.4 62.5 41.4 37.7 50.95 37.7
Q 52.85 37.7 54.55 38.1 56.25 38.45 57.5 39.3
M 46.85 47.95
L 50.05 47.95
Q 50.8 47.95 51.6 47.9 52.4 47.85 53.1 47.6 53.75 47.35 54.2 46.8 54.6 46.25 54.6 45.2 54.6 44.25 54.25 43.7 53.85 43.15 53.25 42.85 52.65 42.55 51.9 42.45 51.15 42.35 50.4 42.35
L 46.85 42.35 46.85 47.95 Z"/>

<path fill="#8C8C8C" stroke="none" d="
M 59.55 41.6
Q 58.8 40.15 57.5 39.3 56.25 38.45 54.55 38.1 52.85 37.7 50.95 37.7
L 41.4 37.7 41.4 62.5 46.85 62.5 46.85 52.6 49.5 52.6 54.7 62.5 61.25 62.5 54.95 52
Q 57.55 51.55 58.95 49.7 60.3 47.85 60.3 45.25 60.3 43.05 59.55 41.6
M 50.05 47.95
L 46.85 47.95 46.85 42.35 50.4 42.35
Q 51.15 42.35 51.9 42.45 52.65 42.55 53.25 42.85 53.85 43.15 54.25 43.7 54.6 44.25 54.6 45.2 54.6 46.25 54.2 46.8 53.75 47.35 53.1 47.6 52.4 47.85 51.6 47.9 50.8 47.95 50.05 47.95 Z"/>
</g>
</g>

<g>
<path stroke="#151515" stroke-width="4" stroke-linejoin="round" stroke-linecap="round" fill="none" d="
M 50 7.8
Q 67.5 7.8 79.85 20.15 92.2 32.5 92.2 50 92.2 67.5 79.85 79.85 67.5 92.2 50 92.2 32.5 92.2 20.15 79.85 7.8 67.5 7.8 50 7.8 32.5 20.15 20.15 32.5 7.8 50 7.8 Z
M 50 15.95
Q 64.2 15.95 74.1 25.95 84.1 35.9 84.1 50 84.1 64.2 74.1 74.1 64.2 84.1 50 84.1 35.9 84.1 25.95 74.1 15.95 64.2 15.95 50 15.95 35.9 25.95 25.95 35.9 15.95 50 15.95 Z"/>
</g>
</g>
</g>
</svg>

<svg width="100" height="100" preserveAspectRatio="xMinYMin meet" version="1.1" viewBox="0 0 100 100" xmlns="http://www.w3.org/2000/svg">
 <defs>
  <radialGradient id="gradient0" cx="0" cy="0" r="819.2" gradientTransform="matrix(.040039 0 0 .040039 50 50.05)" gradientUnits="userSpaceOnUse">
   <stop stop-color="#6c6c6c" offset=".83137"/>
   <stop stop-color="#151515" offset=".97647"/>
  </radialGradient>
 </defs>
 <circle cx="49.942" cy="50.174" r="35.308" fill="#3c3c3c" stroke-width="2" style="paint-order:markers fill stroke"/>
 <g>
  <path d="m82.15 52.5h-4.3c-0.2 2.1333-0.6 4.1833-1.2 6.15l4 1.65c-0.53333 1.6-1.1833 3.1333-1.95 4.6l-3.95-1.65-3.25 4.75 3 3-1.7 1.8-1.85 1.75-3-3-5.15 3.4 1.6 4c-1.5 0.76667-3.0333 1.4-4.6 1.9l-1.65-4.05-5.65 1.05v4.35l-2.5 0.05-2.5-0.05v-4.35c-2.1333-0.2-4.1667-0.61667-6.1-1.25l-1.7 4.1c-1.6-0.53333-3.1333-1.1833-4.6-1.95l1.7-4.05c-1.6333-0.9-3.1667-1.9667-4.6-3.2l-3.15 3.05-1.85-1.75-1.65-1.8 3.1-3.05c-1.4-1.6333-2.5667-3.3667-3.5-5.2l-4.05 1.65c-0.76667-1.5-1.3833-3.0333-1.85-4.6l4.1-1.65c-0.56667-1.8333-0.91667-3.7167-1.05-5.65h-4.4l-0.1-2.5 0.1-2.5h4.4c0.16667-2.1 0.56667-4.1 1.2-6l-4.15-1.75c0.53333-1.6 1.1833-3.1333 1.95-4.6l4.15 1.75c0.83333-1.6333 1.9-3.1833 3.2-4.65l-3.15-3.15 1.7-1.85 1.85-1.7 3.15 3.15c1.5667-1.4 3.25-2.5667 5.05-3.5l-1.65-4.1c1.4667-0.76667 3.0167-1.4 4.65-1.9l1.65 4.15c1.7667-0.53333 3.6333-0.88333 5.6-1.05v-4.4l2.5-0.1 2.5 0.1v4.4c2.1 0.16667 4.1167 0.55 6.05 1.15l1.7-4.05c1.6 0.5 3.1333 1.15 4.6 1.95l-1.7 4.05c1.6667 0.86667 3.25 1.95 4.75 3.25l3.1-3.1 1.8 1.7 1.75 1.85-3.1 3.05c1.3333 1.6 2.4833 3.3167 3.45 5.15l4.05-1.7c0.73333 1.5 1.35 3.05 1.85 4.65l-4 1.65c0.53333 1.8 0.88333 3.6667 1.05 5.6h4.3l0.05 2.5-0.05 2.5" fill="url(#gradient0)"/>
  <path d="m57.8 27.4 3.05 1.3c1.7 0.83333 3.3 1.9167 4.8 3.25v0.05l1.3 1.2 1.25 1.25c1.3333 1.5667 2.4667 3.25 3.4 5.05h-0.05l1.3 3.25v-0.05c0.53333 1.7333 0.86667 3.5667 1 5.5l0.05 1.8-0.05 1.8c-0.16667 2.1-0.55 4.1-1.15 6l-1.35 3.3 0.05-0.1c-0.86667 1.6-1.9167 3.1333-3.15 4.6l-0.05 0.05-1.25 1.3-1.35 1.3-0.05 0.05-4.9 3.25-0.05 0.05-3.2 1.25c-1.7667 0.53333-3.6167 0.86667-5.55 1l-1.85 0.05-1.75-0.05c-2.1333-0.16667-4.15-0.56667-6.05-1.2l-3.1-1.3 0.05 0.05c-1.6667-0.86667-3.2333-1.9333-4.7-3.2v-0.05l-1.25-1.2-1.15-1.25-0.05-0.05c-1.4333-1.6-2.6-3.3-3.5-5.1l-1.15-3.05-0.05-0.05c-0.56667-1.8333-0.91667-3.7333-1.05-5.7l-0.05-1.75 0.05-1.7c0.16667-2.1333 0.56667-4.15 1.2-6.05 0.33333-1.0333 0.76667-2.0333 1.3-3v-0.05c0.83333-1.7 1.95-3.3167 3.35-4.85l0.05-0.05 1.05-1.1 1.05-1 0.05-0.05c1.6333-1.5 3.3833-2.7 5.25-3.6 0.96667-0.5 1.9833-0.91667 3.05-1.25h0.05c1.7667-0.56667 3.65-0.91667 5.65-1.05l1.7-0.05 1.75 0.05c2.1 0.13333 4.1333 0.51667 6.1 1.15h-0.05" fill="#555"/>
  <path d="m63.25 36.9c3.6333 3.6 5.45 7.9667 5.45 13.1 0 5.2-1.8167 9.6167-5.45 13.25s-8.05 5.45-13.25 5.45c-5.1333 0-9.5-1.8167-13.1-5.45-3.6667-3.6333-5.5-8.05-5.5-13.25 0-5.1333 1.8333-9.5 5.5-13.1 3.6-3.6667 7.9667-5.5 13.1-5.5 5.2 0 9.6167 1.8333 13.25 5.5" fill="#3f3f3f"/>
  <path d="m50.05 47.95 1.55-0.05 1.5-0.3q0.65-0.25 1.1-0.8 0.4-0.55 0.4-1.6 0-0.95-0.35-1.5l-1-0.85-1.35-0.4-1.5-0.1h-3.55v5.6h3.2m9.5-6.35q0.75 1.45 0.75 3.65 0 2.6-1.35 4.45-1.4 1.85-4 2.3l6.3 10.5h-6.55l-5.2-9.9h-2.65v9.9h-5.45v-24.8h9.55l3.6 0.4q1.7 0.35 2.95 1.2 1.3 0.85 2.05 2.3" fill="#8c8c8c"/>
  <path d="m50 15.95q-14.1 0-24.05 10-10 9.95-10 24.05 0 14.2 10 24.1 9.95 10 24.05 10 14.2 0 24.1-10 10-9.9 10-24.1 0-14.1-10-24.05-9.9-10-24.1-10m0-8.15q17.5 0 29.85 12.35t12.35 29.85-12.35 29.85-29.85 12.35-29.85-12.35-12.35-29.85 12.35-29.85 29.85-12.35" fill="#272727"/>
 </g>
 <path d="m50 15.95q14.2 0 24.1 10 10 9.95 10 24.05 0 14.2-10 24.1-9.9 10-24.1 10-14.1 0-24.05-10-10-9.9-10-24.1 0-14.1 10-24.05 9.95-10 24.05-10m0-8.15q17.5 0 29.85 12.35t12.35 29.85-12.35 29.85-29.85 12.35-29.85-12.35-12.35-29.85 12.35-29.85 29.85-12.35" fill="none" stroke="#151515" stroke-linecap="round" stroke-linejoin="round" stroke-width="4"/>
</svg>
